img/logo.svg

<?xml version="1.0" encoding="UTF-8"?>
<svg width="132px" height="24px" viewBox="0 0 132 24" version="1.1" xmlns="http://www.w3.org/2000/svg" xmlns:xlink="http://www.w3.org/1999/xlink">
    <title>Logo</title>
    <g id="UI" stroke="none" stroke-width="1" fill="none" fill-rule="evenodd">
        <g id="Desktop-Intersoft-UI" transform="translate(-230.000000, -308.000000)">
            <g id="Logo" transform="translate(160.000000, 308.000000)">
                <g transform="translate(70.000000, 0.000000)">
                    <path d="M33.5021958,23.6142082 L33.5021958,11.5897184 L37.200155,11.5897184 L37.200155,23.6142082 L33.5021958,23.6142082 Z M33.3797468,5.81012658 L37.3470938,5.81012658 L37.3470938,9.26318781 L33.3797468,9.26318781 L33.3797468,5.81012658 Z M47.5838285,11.2958409 C49.0205703,11.2958409 50.0899474,11.7162448 50.7919917,12.5570654 C51.4940361,13.3978859 51.845053,14.6672609 51.845053,16.3652286 L51.845053,23.6142082 L48.1470938,23.6142082 L48.1470938,16.5366572 C48.1470938,15.7203266 47.9960749,15.1244142 47.6940325,14.7489021 C47.3919902,14.37339 46.9226072,14.1856368 46.2858693,14.1856368 C45.5185185,14.1856368 44.9021981,14.4305323 44.4368897,14.9203307 C43.9715812,15.410129 43.7389305,16.0631837 43.7389305,16.8795143 L43.7389305,23.6142082 L40.0409713,23.6142082 L40.0409713,11.5897184 L43.6409713,11.5897184 L43.6409713,13.3040041 C44.0654632,12.6509396 44.6164781,12.1529854 45.2940325,11.8101266 C45.971587,11.4672677 46.7348446,11.2958409 47.5838285,11.2958409 Z M61.2736244,21.0917592 C61.6491365,21.0917592 62.0409693,21.0672697 62.4491346,21.0182898 L62.2532162,23.7121674 C61.7797445,23.7774738 61.3062798,23.8101266 60.8328081,23.8101266 C59.0042275,23.8101266 57.669547,23.4101306 56.8287264,22.6101266 C55.9879059,21.8101226 55.5675019,20.5938082 55.5675019,18.961147 L55.5675019,14.3570654 L53.2899509,14.3570654 L53.2899509,11.5897184 L55.5675019,11.5897184 L55.5675019,8.06318781 L59.2654611,8.06318781 L59.2654611,11.5897184 L62.277706,11.5897184 L62.277706,14.3570654 L59.2654611,14.3570654 L59.2654611,18.9366572 C59.2654611,20.3733991 59.9348422,21.0917592 61.2736244,21.0917592 Z M75.2745848,18.2999225 L67.4378501,18.2999225 C67.5521364,19.2631926 67.8664189,19.9611448 68.3807072,20.3938001 C68.8949955,20.8264553 69.6256004,21.0427796 70.572544,21.0427796 C71.1929552,21.0427796 71.8092756,20.9407398 72.4215235,20.7366572 C73.0337715,20.5325745 73.5929496,20.2427815 74.0990746,19.8672694 L75.0786664,22.3407388 C74.4909084,22.797884 73.7766298,23.1570641 72.9358093,23.4182898 C72.0949887,23.6795156 71.2500992,23.8101266 70.4011154,23.8101266 C68.3766155,23.8101266 66.7807131,23.2509485 65.6133603,22.1325756 C64.4460075,21.0142026 63.8623399,19.4917689 63.8623399,17.5652286 C63.8623399,16.3407327 64.1153986,15.2550293 64.6215235,14.3080858 C65.1276485,13.3611423 65.8296823,12.6223741 66.727646,12.0917592 C67.6256097,11.5611443 68.6460076,11.2958409 69.7888705,11.2958409 C71.4705115,11.2958409 72.8051921,11.8427742 73.7929521,12.9366572 C74.7807122,14.0305402 75.2745848,15.5162396 75.2745848,17.3938001 L75.2745848,18.2999225 Z M69.8868297,13.8427796 C69.1847853,13.8427796 68.6256073,14.0672672 68.2092786,14.516249 C67.79295,14.9652309 67.5358098,15.614204 67.4378501,16.4631878 L72.1643807,16.4631878 C72.1154009,15.5978774 71.8990765,14.9448227 71.5154011,14.5040041 C71.1317257,14.0631856 70.588874,13.8427796 69.8868297,13.8427796 Z M86.0990746,14.3325756 L84.0174419,14.5529837 C82.9888653,14.6509434 82.262342,14.9407364 81.8378501,15.4223715 C81.4133582,15.9040065 81.2011154,16.5448165 81.2011154,17.3448205 L81.2011154,23.6142082 L77.5031562,23.6142082 L77.5031562,11.5897184 L81.0541766,11.5897184 L81.0541766,13.6223715 C81.6582613,12.2346094 82.9072284,11.4754334 84.8011154,11.3448205 L85.8786664,11.2713511 L86.0990746,14.3325756 Z M91.9521358,23.8101266 C90.8419262,23.8101266 89.8256098,23.6835972 88.9031562,23.4305347 C87.9807026,23.1774723 87.1847922,22.8142106 86.5154011,22.3407388 L87.4949929,19.7938001 C88.1480574,20.2346186 88.8664176,20.5774723 89.650095,20.8223715 C90.4337724,21.0672707 91.2256012,21.1897184 92.0256052,21.1897184 C92.5970366,21.1897184 93.0419301,21.0958418 93.3602991,20.9080858 C93.678668,20.7203297 93.8378501,20.4631894 93.8378501,20.1366572 C93.8378501,19.8427782 93.7276471,19.614209 93.5072378,19.4509429 C93.2868286,19.2876768 92.8745878,19.1407395 92.2705031,19.0101266 L90.3113195,18.5693103 C89.15213,18.3080845 88.2990773,17.9040069 87.7521358,17.3570654 C87.2051943,16.8101238 86.9317276,16.0631925 86.9317276,15.116249 C86.9317276,14.3652249 87.148052,13.704007 87.5807072,13.1325756 C88.0133624,12.5611441 88.6256012,12.112169 89.4174419,11.7856368 C90.2092826,11.4591045 91.1113144,11.2958409 92.1235644,11.2958409 C92.9888748,11.2958409 93.8296827,11.4264518 94.6460133,11.6876776 C95.462344,11.9489034 96.1970305,12.3162467 96.850095,12.7897184 L95.8705031,15.238698 C94.5970274,14.3570609 93.3398971,13.916249 92.0990746,13.916249 C91.5276431,13.916249 91.078668,14.0142072 90.7521358,14.2101266 C90.4256035,14.4060459 90.2623399,14.6835942 90.2623399,15.0427796 C90.2623399,15.3040054 90.3602981,15.508085 90.5562174,15.6550245 C90.7521368,15.8019641 91.0949905,15.9407382 91.5847889,16.0713511 L93.6174419,16.5366572 C94.8419378,16.8142096 95.7358064,17.2346136 96.2990746,17.7978817 C96.8623427,18.3611498 97.1439725,19.1244075 97.1439725,20.0876776 C97.1439725,21.2468671 96.6827526,22.1570621 95.7602991,22.8182898 C94.8378455,23.4795176 93.5684704,23.8101266 91.9521358,23.8101266 Z M105.029687,23.8101266 C103.756211,23.8101266 102.637855,23.5529863 101.674585,23.038698 C100.711315,22.5244097 99.9684649,21.7978864 99.4460133,20.8591062 C98.9235618,19.920326 98.6623399,18.8142146 98.6623399,17.5407388 C98.6623399,16.2672631 98.9235618,15.1611517 99.4460133,14.2223715 C99.9684649,13.2835913 100.711315,12.5611495 101.674585,12.0550245 C102.637855,11.5488996 103.756211,11.2958409 105.029687,11.2958409 C106.303163,11.2958409 107.421519,11.5488996 108.384789,12.0550245 C109.348059,12.5611495 110.090909,13.2835913 110.61336,14.2223715 C111.135812,15.1611517 111.397034,16.2672631 111.397034,17.5407388 C111.397034,18.8142146 111.135812,19.920326 110.61336,20.8591062 C110.090909,21.7978864 109.348059,22.5244097 108.384789,23.038698 C107.421519,23.5529863 106.303163,23.8101266 105.029687,23.8101266 Z M105.029687,20.9938001 C106.825614,20.9938001 107.723564,19.8427912 107.723564,17.5407388 C107.723564,16.3815494 107.490914,15.5162519 107.025605,14.9448205 C106.560297,14.373389 105.894997,14.0876776 105.029687,14.0876776 C103.233759,14.0876776 102.335809,15.2386865 102.335809,17.5407388 C102.335809,19.8427912 103.233759,20.9938001 105.029687,20.9938001 Z M118.303156,11.5897184 L121.315401,11.5897184 L121.315401,14.3570654 L118.303156,14.3570654 L118.303156,23.6142082 L114.605197,23.6142082 L114.605197,14.3570654 L112.327646,14.3570654 L112.327646,11.5897184 L114.605197,11.5897184 C114.63785,9.89175075 115.131723,8.6142125 116.08683,7.75706536 C117.041936,6.89991821 118.499065,6.41420879 120.458258,6.2999225 L121.805197,6.22645311 L122.025605,8.94482046 L120.874585,8.99380005 C119.927641,9.02645328 119.262342,9.20196173 118.878666,9.52033066 C118.494991,9.8386996 118.303156,10.3652249 118.303156,11.0999225 L118.303156,11.5897184 Z M129.482028,21.0917592 C129.85754,21.0917592 130.249373,21.0672697 130.657538,21.0182898 L130.46162,23.7121674 C129.988148,23.7774738 129.514683,23.8101266 129.041211,23.8101266 C127.212631,23.8101266 125.87795,23.4101306 125.03713,22.6101266 C124.196309,21.8101226 123.775905,20.5938082 123.775905,18.961147 L123.775905,14.3570654 L123.775905,11.5897184 L123.775905,8.06318781 L127.473864,8.06318781 L127.473864,11.5897184 L130.486109,11.5897184 L130.486109,14.3570654 L127.473864,14.3570654 L127.473864,18.9366572 C127.473864,20.3733991 128.143246,21.0917592 129.482028,21.0917592 Z" id="intersoft" fill="#FFFFFF" fill-rule="nonzero"></path>
                    <path d="M91.9521358,23.8101266 C90.8419262,23.8101266 89.8256098,23.6835972 88.9031562,23.4305347 C87.9807026,23.1774723 87.1847922,22.8142106 86.5154011,22.3407388 L87.4949929,19.7938001 C88.1480574,20.2346186 88.8664176,20.5774723 89.650095,20.8223715 C90.4337724,21.0672707 91.2256012,21.1897184 92.0256052,21.1897184 C92.5970366,21.1897184 93.0419301,21.0958418 93.3602991,20.9080858 C93.678668,20.7203297 93.8378501,20.4631894 93.8378501,20.1366572 C93.8378501,19.8427782 93.7276471,19.614209 93.5072378,19.4509429 C93.2868286,19.2876768 92.8745878,19.1407395 92.2705031,19.0101266 L90.3113195,18.5693103 C89.15213,18.3080845 88.2990773,17.9040069 87.7521358,17.3570654 C87.2051943,16.8101238 86.9317276,16.0631925 86.9317276,15.116249 C86.9317276,14.3652249 87.148052,13.704007 87.5807072,13.1325756 C88.0133624,12.5611441 88.6256012,12.112169 89.4174419,11.7856368 C90.2092826,11.4591045 91.1113144,11.2958409 92.1235644,11.2958409 C92.9888748,11.2958409 93.8296827,11.4264518 94.6460133,11.6876776 C95.462344,11.9489034 96.1970305,12.3162467 96.850095,12.7897184 L95.8705031,15.238698 C94.5970274,14.3570609 93.3398971,13.916249 92.0990746,13.916249 C91.5276431,13.916249 91.078668,14.0142072 90.7521358,14.2101266 C90.4256035,14.4060459 90.2623399,14.6835942 90.2623399,15.0427796 C90.2623399,15.3040054 90.3602981,15.508085 90.5562174,15.6550245 C90.7521368,15.8019641 91.0949905,15.9407382 91.5847889,16.0713511 L93.6174419,16.5366572 C94.8419378,16.8142096 95.7358064,17.2346136 96.2990746,17.7978817 C96.8623427,18.3611498 97.1439725,19.1244075 97.1439725,20.0876776 C97.1439725,21.2468671 96.6827526,22.1570621 95.7602991,22.8182898 C94.8378455,23.4795176 93.5684704,23.8101266 91.9521358,23.8101266 Z M105.029687,23.8101266 C103.756211,23.8101266 102.637855,23.5529863 101.674585,23.038698 C100.711315,22.5244097 99.9684649,21.7978864 99.4460133,20.8591062 C98.9235618,19.920326 98.6623399,18.8142146 98.6623399,17.5407388 C98.6623399,16.2672631 98.9235618,15.1611517 99.4460133,14.2223715 C99.9684649,13.2835913 100.711315,12.5611495 101.674585,12.0550245 C102.637855,11.5488996 103.756211,11.2958409 105.029687,11.2958409 C106.303163,11.2958409 107.421519,11.5488996 108.384789,12.0550245 C109.348059,12.5611495 110.090909,13.2835913 110.61336,14.2223715 C111.135812,15.1611517 111.397034,16.2672631 111.397034,17.5407388 C111.397034,18.8142146 111.135812,19.920326 110.61336,20.8591062 C110.090909,21.7978864 109.348059,22.5244097 108.384789,23.038698 C107.421519,23.5529863 106.303163,23.8101266 105.029687,23.8101266 Z M105.029687,20.9938001 C106.825614,20.9938001 107.723564,19.8427912 107.723564,17.5407388 C107.723564,16.3815494 107.490914,15.5162519 107.025605,14.9448205 C106.560297,14.373389 105.894997,14.0876776 105.029687,14.0876776 C103.233759,14.0876776 102.335809,15.2386865 102.335809,17.5407388 C102.335809,19.8427912 103.233759,20.9938001 105.029687,20.9938001 Z M118.303156,11.5897184 L121.315401,11.5897184 L121.315401,14.3570654 L118.303156,14.3570654 L118.303156,23.6142082 L114.605197,23.6142082 L114.605197,14.3570654 L112.327646,14.3570654 L112.327646,11.5897184 L114.605197,11.5897184 C114.63785,9.89175075 115.131723,8.6142125 116.08683,7.75706536 C117.041936,6.89991821 118.499065,6.41420879 120.458258,6.2999225 L121.805197,6.22645311 L122.025605,8.94482046 L120.874585,8.99380005 C119.927641,9.02645328 119.262342,9.20196173 118.878666,9.52033066 C118.494991,9.8386996 118.303156,10.3652249 118.303156,11.0999225 L118.303156,11.5897184 Z M129.482028,21.0917592 C129.85754,21.0917592 130.249373,21.0672697 130.657538,21.0182898 L130.46162,23.7121674 C129.988148,23.7774738 129.514683,23.8101266 129.041211,23.8101266 C127.212631,23.8101266 125.87795,23.4101306 125.03713,22.6101266 C124.196309,21.8101226 123.775905,20.5938082 123.775905,18.961147 L123.775905,14.3570654 L123.775905,11.5897184 L123.775905,8.06318781 L127.473864,8.06318781 L127.473864,11.5897184 L130.486109,11.5897184 L130.486109,14.3570654 L127.473864,14.3570654 L127.473864,18.9366572 C127.473864,20.3733991 128.143246,21.0917592 129.482028,21.0917592 Z" id="intersoft-copy" fill="#F7AD01" fill-rule="nonzero"></path>
                    <path d="M8,0 L8,24 L1.25199429e-13,24 L1.25199429e-13,16 L7.999,8 L1.25199429e-13,8 L1.25199429e-13,0 L8,0 Z M14.9782165,0 L15.239605,0.00377964581 C20.0148339,0.142049084 23.8434434,4.05652817 23.8434434,8.8652269 L23.8434434,8.8652269 L23.8434434,24 L15.8434434,24 L15.8434434,15.8434434 C15.8434434,11.5116292 12.3318141,8 8,8 L8,8 L14.9782165,0 Z" id="Combined-Shape" fill="#F7AD01"></path>
                </g>
            </g>
        </g>
    </g>
</svg>

<svg xmlns="http://www.w3.org/2000/svg" width="132" height="24" viewBox="0 0 132 24">
    <g fill="none" fill-rule="evenodd">
        <path fill="#FFF" fill-rule="nonzero" d="M33.502 23.614V11.59H37.2v12.024h-3.698zM33.38 5.81h3.967v3.453H33.38V5.81zm14.204 5.486c1.437 0 2.506.42 3.208 1.261.702.84 1.053 2.11 1.053 3.808v7.25h-3.698v-7.078c0-.817-.15-1.413-.453-1.788-.302-.376-.771-.563-1.408-.563-.767 0-1.384.245-1.85.734-.464.49-.697 1.143-.697 1.96v6.734H40.04V11.59h3.6v1.714c.424-.653.975-1.151 1.653-1.494.678-.343 1.44-.514 2.29-.514zm13.69 9.796c.375 0 .767-.025 1.175-.074l-.196 2.694c-.473.065-.947.098-1.42.098-1.829 0-3.163-.4-4.004-1.2-.841-.8-1.261-2.016-1.261-3.649v-4.604H53.29V11.59h2.278V8.063h3.697v3.527h3.013v2.767h-3.013v4.58c0 1.436.67 2.155 2.009 2.155zm14-2.792h-7.836c.114.963.428 1.661.943 2.094.514.432 1.245.649 2.192.649.62 0 1.236-.102 1.849-.306.612-.204 1.17-.494 1.677-.87l.98 2.474c-.588.457-1.302.816-2.143 1.077-.841.262-1.686.392-2.535.392-2.024 0-3.62-.56-4.788-1.677-1.167-1.119-1.75-2.641-1.75-4.568 0-1.224.252-2.31.759-3.257.506-.947 1.208-1.686 2.106-2.216.898-.53 1.918-.796 3.06-.796 1.683 0 3.017.547 4.005 1.64.988 1.095 1.482 2.58 1.482 4.458v.906zm-5.387-4.457c-.702 0-1.261.224-1.678.673-.416.45-.673 1.098-.771 1.947h4.726c-.049-.865-.265-1.518-.649-1.959-.383-.44-.926-.661-1.628-.661zm16.212.49l-2.082.22c-1.028.098-1.755.388-2.18.87-.424.481-.636 1.122-.636 1.922v6.27h-3.698V11.59h3.551v2.032c.604-1.387 1.853-2.147 3.747-2.277l1.078-.074.22 3.062zm5.853 9.477c-1.11 0-2.126-.126-3.049-.38-.922-.253-1.718-.616-2.388-1.09l.98-2.546c.653.44 1.371.783 2.155 1.028.784.245 1.576.368 2.376.368.571 0 1.016-.094 1.334-.282.319-.188.478-.445.478-.771 0-.294-.11-.523-.33-.686-.221-.163-.633-.31-1.237-.44l-1.96-.442c-1.159-.26-2.012-.665-2.559-1.212-.547-.547-.82-1.294-.82-2.24 0-.752.216-1.413.649-1.984.432-.572 1.045-1.02 1.836-1.347.792-.327 1.694-.49 2.707-.49.865 0 1.706.13 2.522.392.816.26 1.551.628 2.204 1.102l-.98 2.449c-1.273-.882-2.53-1.323-3.77-1.323-.572 0-1.021.098-1.348.294-.326.196-.49.474-.49.833 0 .261.098.465.294.612.196.147.539.286 1.029.416l2.032.466c1.225.277 2.119.698 2.682 1.26.563.564.845 1.327.845 2.29 0 1.16-.461 2.07-1.384 2.731-.922.662-2.192.992-3.808.992zm13.078 0c-1.274 0-2.392-.257-3.355-.771-.964-.515-1.707-1.241-2.229-2.18-.522-.939-.784-2.045-.784-3.318 0-1.274.262-2.38.784-3.319.522-.938 1.265-1.66 2.229-2.167.963-.506 2.081-.76 3.355-.76 1.273 0 2.392.254 3.355.76.963.506 1.706 1.229 2.228 2.167.523.94.784 2.045.784 3.319 0 1.273-.261 2.38-.784 3.318-.522.939-1.265 1.665-2.228 2.18-.963.514-2.082.771-3.355.771zm0-2.816c1.796 0 2.694-1.151 2.694-3.453 0-1.16-.233-2.025-.698-2.596-.466-.572-1.131-.857-1.996-.857-1.796 0-2.694 1.15-2.694 3.453 0 2.302.898 3.453 2.694 3.453zm13.273-9.404h3.012v2.767h-3.012v9.257h-3.698v-9.257h-2.277V11.59h2.277c.033-1.698.527-2.976 1.482-3.833.955-.857 2.412-1.343 4.371-1.457l1.347-.074.22 2.719-1.15.049c-.947.032-1.613.208-1.996.526-.384.319-.576.845-.576 1.58v.49zm11.179 9.502c.376 0 .767-.025 1.176-.074l-.196 2.694c-.474.065-.947.098-1.42.098-1.83 0-3.164-.4-4.005-1.2-.84-.8-1.261-2.016-1.261-3.649V8.063h3.698v3.527h3.012v2.767h-3.012v4.58c0 1.436.67 2.155 2.008 2.155z"/>
        <path fill="#F7AD01" fill-rule="nonzero" d="M91.952 23.81c-1.11 0-2.126-.126-3.049-.38-.922-.253-1.718-.616-2.388-1.09l.98-2.546c.653.44 1.371.783 2.155 1.028.784.245 1.576.368 2.376.368.571 0 1.016-.094 1.334-.282.319-.188.478-.445.478-.771 0-.294-.11-.523-.33-.686-.221-.163-.633-.31-1.237-.44l-1.96-.442c-1.159-.26-2.012-.665-2.559-1.212-.547-.547-.82-1.294-.82-2.24 0-.752.216-1.413.649-1.984.432-.572 1.045-1.02 1.836-1.347.792-.327 1.694-.49 2.707-.49.865 0 1.706.13 2.522.392.816.26 1.551.628 2.204 1.102l-.98 2.449c-1.273-.882-2.53-1.323-3.77-1.323-.572 0-1.021.098-1.348.294-.326.196-.49.474-.49.833 0 .261.098.465.294.612.196.147.539.286 1.029.416l2.032.466c1.225.277 2.119.698 2.682 1.26.563.564.845 1.327.845 2.29 0 1.16-.461 2.07-1.384 2.731-.922.662-2.192.992-3.808.992zm13.078 0c-1.274 0-2.392-.257-3.355-.771-.964-.515-1.707-1.241-2.229-2.18-.522-.939-.784-2.045-.784-3.318 0-1.274.262-2.38.784-3.319.522-.938 1.265-1.66 2.229-2.167.963-.506 2.081-.76 3.355-.76 1.273 0 2.392.254 3.355.76.963.506 1.706 1.229 2.228 2.167.523.94.784 2.045.784 3.319 0 1.273-.261 2.38-.784 3.318-.522.939-1.265 1.665-2.228 2.18-.963.514-2.082.771-3.355.771zm0-2.816c1.796 0 2.694-1.151 2.694-3.453 0-1.16-.233-2.025-.698-2.596-.466-.572-1.131-.857-1.996-.857-1.796 0-2.694 1.15-2.694 3.453 0 2.302.898 3.453 2.694 3.453zm13.273-9.404h3.012v2.767h-3.012v9.257h-3.698v-9.257h-2.277V11.59h2.277c.033-1.698.527-2.976 1.482-3.833.955-.857 2.412-1.343 4.371-1.457l1.347-.074.22 2.719-1.15.049c-.947.032-1.613.208-1.996.526-.384.319-.576.845-.576 1.58v.49zm11.179 9.502c.376 0 .767-.025 1.176-.074l-.196 2.694c-.474.065-.947.098-1.42.098-1.83 0-3.164-.4-4.005-1.2-.84-.8-1.261-2.016-1.261-3.649V8.063h3.698v3.527h3.012v2.767h-3.012v4.58c0 1.436.67 2.155 2.008 2.155z"/>
        <path fill="#F7AD01" d="M8 0v24H0v-8l7.999-8H0V0h8zm6.978 0l.262.004c4.775.138 8.603 4.053 8.603 8.861V24h-8v-8.157C15.843 11.512 12.332 8 8 8l6.978-8z"/>
    </g>
</svg>
